!!!COM: Mendelssohn, Felix
!!!CDT: 1809/02/03-1847/11/04
!!!OPR: Vier vierstimmige Lieder
!!!OTL: Lob des Frühlings
!!!OPS: Op. 100
!!!ONM: Nr. 2
!!!OMD: Con moto
**kern	**text	**dynam	**kern	**text	**dynam	**kern	**text	**dynam	**kern	**text	**dynam
*part4	*part4	*part4	*part3	*part3	*part3	*part2	*part2	*part2	*part1	*part1	*part1
*staff4	*staff4	*	*staff3	*staff3	*	*staff2	*staff2	*	*staff1	*staff1	*
*Ivox	*	*	*Ivox	*	*	*Ivox	*	*	*Ivox	*	*
*I"Bass	*	*	*I"Tenor	*	*	*I"Alt	*	*	*I"Sopran	*	*
*clefF4	*	*	*clefGv2	*	*	*clefG2	*	*	*clefG2	*	*
*k[f#c#g#]	*	*	*k[f#c#g#]	*	*	*k[f#c#g#]	*	*	*k[f#c#g#]	*	*
*A:	*	*	*A:	*	*	*A:	*	*	*A:	*	*
*M4/4	*	*	*M4/4	*	*	*M4/4	*	*	*M4/4	*	*
*met(c)	*	*	*met(c)	*	*	*met(c)	*	*	*met(c)	*	*
*MM120	*	*	*MM120	*	*	*MM120	*	*	*MM120	*	*
=	=	=	=	=	=	=	=	=	=	=	=
4.A	Saa-	p	4.c#	Saa-	p	4.e	Saa-	p	4.a	Saa-	p
8A	-ten-	.	8d	-ten-	.	8a	-ten-	.	8b	-ten-	.
=1	=1	=1	=1	=1	=1	=1	=1	=1	=1	=1	=1
4A	-grün,	.	4e	-grün,	.	4a	-grün,	.	4cc#	-grün,	.
4r	.	.	4r	.	.	4r	.	.	4r	.	.
4.A	Veil-	<	4.e	Veil-	<	4.e	Veil-	<	4.cc#	Veil-	<
8A	-chen-	[[	8d	-chen-	[[	8f#	-chen-	[[	8dd	-chen-	[[
=2	=2	=2	=2	=2	=2	=2	=2	=2	=2	=2	=2
4A	-duft,	.	4c#	-duft,	.	4gn	-duft,	.	4ee	-duft,	.
4r	.	.	4r	.	.	4r	.	.	4r	.	.
4.A	Ler-	sf	4.c#	Ler-	sf	4.g	Ler-	sf	4.ee	Ler-	sf
8A	-chen-	.	8c#	-chen-	.	8g	-chen-	.	8ff#	-chen-	.
=3	=3	=3	=3	=3	=3	=3	=3	=3	=3	=3	=3
8A	-wir-	.	8d	-wir-	.	8f#	-wir-	.	8ee	-wir-	.
8A	-bel,	.	8d	-bel,	.	8f#	-bel,	.	8dd	-bel,	.
4r	.	.	4r	.	.	4r	.	.	4r	.	.
4.A	Am-	sf	4.B	Am-	sf	4.g#	Am-	sf	4.dd	Am-	sf
8A	-sel-	.	8B	-sel-	.	8g#	-sel-	.	8ee	-sel-	.
=4	=4	=4	=4	=4	=4	=4	=4	=4	=4	=4	=4
4A	-schlag,	.	4e	-schlag,	.	4a	-schlag,	.	4cc#	-schlag,	.
4r	.	.	4r	.	.	4r	.	.	4r	.	.
4.A	Son-	>	4.c#	Son-	>	4.e	Son-	>	4.ee	Son-	>
8A	-nen-	.	8c#	-nen-	.	8e	-nen-	.	8cc#	-nen-	.
=5	=5	=5	=5	=5	=5	=5	=5	=5	=5	=5	=5
8F#	-re-	.	8c#	-re-	.	8e	-re-	.	8b	-re-	.
8F#	-gen,	.	8c#	-gen,	.	8e	-gen,	.	8a	-gen,	.
4r	.	.	4r	.	.	4r	.	.	4r	.	.
4.F#	lin-	p	4.A	lin-	p	4.d#X	lin-	p	4.a	lin-	p
8F#	-de	.	8A	-de	.	8d#	-de	.	8g#	-de	.
=6	=6	=6	=6	=6	=6	=6	=6	=6	=6	=6	=6
2E;	Luft!	.	2G#;	Luft!	.	2e;	Luft!	.	2b;	Luft!	.
4C#	Wenn	<	4A	Wenn	<	4e	Wenn	<	4e	Wenn	<
4C#	ich	.	4A	ich	.	4e	ich	.	4e	ich	.
=7	=7	=7	=7	=7	=7	=7	=7	=7	=7	=7	=7
4.D	sol-	.	4.A	sol-	.	4e	sol-	.	4.f#	sol-	.
.	.	.	.	.	.	4d	-che	.	.	.	.
8D	-che	.	8A	-che	.	.	.	.	8f#	-che	.
4D	Wor-	.	(8BL	Wor-	.	(8dL	Wor-	.	(8ddL	Wor-	.
.	.	.	8c#J)	.	.	8eJ)	.	.	8cc#J)	.	.
4D	-te	.	4d	-te	.	4f#	-te	.	(8bL	-te	.
.	.	.	.	.	.	.	.	.	8aJ)	.	.
=8	=8	=8	=8	=8	=8	=8	=8	=8	=8	=8	=8
4E	sin-	.	4c#	sin-	.	4.e	sin-	.	4a	sin-	.
4E	-ge,	.	4B	-ge,	.	.	.	.	4g#	-ge,	.
.	.	.	.	.	.	8e	-ge,	.	.	.	.
4E	braucht	.	4B	braucht	.	4d	braucht	.	4g#	braucht	.
4E	es	.	4B	es	.	4d	es	.	4g#	es	.
=9	=9	=9	=9	=9	=9	=9	=9	=9	=9	=9	=9
4.F#	dann	<	4.A	dann	<	4.c#	dann	<	4.a	dann	<
8F#	noch	.	8c#	noch	.	8a	noch	.	8a	noch	.
*D:	*	*	*D:	*	*	*D:	*	*	*D:	*	*
4A	gro-	.	4c#	gro-	.	4gn	gro-	.	(8ff#L	gro-	.
.	.	.	.	.	.	.	.	.	8eeJ)	.	.
4A	-sser	.	(8dL	-sser	.	4g	-sser	.	(8ddL	-sser	.
.	.	.	8eJ)	.	.	.	.	.	8cc#J)	.	.
=10	=10	=10	=10	=10	=10	=10	=10	=10	=10	=10	=10
4A	Din-	sf	4e	Din-	sf	4gn	Din-	sf	4cc#	Din-	sf
4D	-ge,	.	4d	-ge,	.	4f#	-ge,	.	4dd	-ge,	.
(4D'	dich	.	(4A'	dich	.	(4f#'	dich	.	(4ff#'	dich	.
*b:	*	*	*b:	*	*	*b:	*	*	*b:	*	*
4D'	zu	>	4A#X'	zu	>	4f#'	zu	>	4ee'	zu	>
=11	=11	=11	=11	=11	=11	=11	=11	=11	=11	=11	=11
4D'	prei-	.	4B'	prei-	.	4f#'	prei-	.	4dd'	prei-	.
4D'	-sen,	]	4e'	-sen,	]	4f#'	-sen,	]	4cc#'	-sen,	]
*A:	*	*	*A:	*	*	*A:	*	*	*A:	*	*
4D'	Früh-	.	4d'	Früh-	.	4f#'	Früh-	.	4b')	Früh-	.
4D#X')	-lings-	.	4cn')	-lings-	.	4f#')	-lings-	.	(8bL	-lings-	.
.	.	.	.	.	.	.	.	.	8aJ)	.	.
=12	=12	=12	=12	=12	=12	=12	=12	=12	=12	=12	=12
2E	-tag,	.	2B	-tag,	.	2e	-tag,	.	2g#	-tag,	.
4E	Früh-	p	4d	Früh-	p	4g#	dich	p	4ee	dich	p
4E	-lings-	.	4d	-lings-	.	4g#	zu	.	4ee	zu	.
=13	=13	=13	=13	=13	=13	=13	=13	=13	=13	=13	=13
[1AA	-tag,	.	[1c#X	-tag,	.	4.a	prei-	.	4.ee	prei-	.
.	.	.	.	.	.	8cc#	-sen	.	8aa	-sen	.
.	.	.	.	.	.	(8aL	Früh-	.	(8eeL	Früh-	.
.	.	.	.	.	.	8eJ)	.	.	8cc#J)	.	.
.	.	.	.	.	.	(8c#L	-lings-	.	(8aL	-lings-	.
.	.	.	.	.	.	8eJ)	.	.	8cc#J)	.	.
=14	=14	=14	=14	=14	=14	=14	=14	=14	=14	=14	=14
2AA]	.	.	2c#]	.	.	2a	-tag,	.	2ee	-tag,	.
4F#	dich	f <	4c#	dich	f <	4a	dich	f <	4a	dich	f <
4E#X	zu	[[	4B	zu	[[	4g#	zu	[[	4cc#	zu	[[
=15	=15	=15	=15	=15	=15	=15	=15	=15	=15	=15	=15
4F#	prei-	.	4A	prei-	.	4f#	prei-	.	4cc#	prei-	.
4D	-sen,	.	4B	-sen,	.	4f#	-sen,	.	(8eeL	-sen,	.
.	.	.	.	.	.	.	.	.	8ddJ)	.	.
4EnX	Früh-	.	4.e	Früh-	.	4a	Früh-	.	4.cc#	Früh-	.
4E	-lings-	.	.	.	.	4g#	-lings-	.	.	.	.
.	.	.	8d	-lings-	.	.	.	.	8b	-lings-	.
=16	=16	=16	=16	=16	=16	=16	=16	=16	=16	=16	=16
2AA	-tag?	.	2c#	-tag?	.	2a	-tag?	.	2a	-tag?	.
2r	.	.	4.G#	Saa-	p	4.B	Saa-	p	4.e	Saa-	p
.	.	.	8A	-ten-	.	8e	-ten-	.	8f#	-ten-	.
=17	=17	=17	=17	=17	=17	=17	=17	=17	=17	=17	=17
4.E	Saa-	p	4B	-grün,	.	4e	-grün,	.	4g#	-grün,	.
.	.	.	4r	.	.	4r	.	.	4r	.	.
8E	-ten-	.	.	.	.	.	.	.	.	.	.
2E	-grün,	.	4.d	Veil	<	4.e	Veil	<	4.b	Veil	<
.	.	.	8c#	chen	.	8e	chen	.	8a	chen	.
=18	=18	=18	=18	=18	=18	=18	=18	=18	=18	=18	=18
4.E	Veil	<	4B	duft,	.	4e	duft,	.	4g#	duft,	.
.	.	.	4r	.	.	4r	.	.	4r	.	.
8E	chen	.	.	.	.	.	.	.	.	.	.
*b:	*	*	*b:	*	*	*b:	*	*	*b:	*	*
2E	duft,	.	4.e	Ler-	sf	4.gn	Ler-	sf	4.cc#	Ler-	sf
.	.	.	8d	-chen-	.	8g	-chen-	.	8b	-chen-	.
=19	=19	=19	=19	=19	=19	=19	=19	=19	=19	=19	=19
4.E	Ler-	sf	8c#	-wir-	.	8f#	-wir-	.	8b	-wir-	.
.	.	.	8c#	-bel,	.	8f#	-bel,	.	8a#X	-bel,	.
.	.	.	4r	.	.	4r	.	.	4r	.	.
8E	-chen-	.	.	.	.	.	.	.	.	.	.
8E	-wir-	.	4.f#	Am-	.	4.a#X	Am-	.	4.dd	Am-	.
8E	-bel,	.	.	.	.	.	.	.	.	.	.
4r	.	.	.	.	.	.	.	.	.	.	.
.	.	.	8f#	-sel-	.	8a#	-sel-	.	8cc#	-sel-	.
=20	=20	=20	=20	=20	=20	=20	=20	=20	=20	=20	=20
4.D	Son-	f	4f#	-schlag,	.	4b	-schlag,	.	4b	-schlag,	.
.	.	.	4r	.	.	4r	.	.	4r	.	.
8D	-nen-	.	.	.	.	.	.	.	.	.	.
(4D	-re-	.	4.d	Son-	f	4.b	Son-	f	4.ff#	Son-	f
4F#)	.	.	.	.	.	.	.	.	.	.	.
.	.	.	8c#	-nen-	.	8a#X	-nen-	.	8ee	-nen-	.
=21	=21	=21	=21	=21	=21	=21	=21	=21	=21	=21	=21
[4B	-gen,	.	8c#	-re-	.	8a#X	-re-	.	8ee	-re-	.
.	.	.	8B	-gen,	.	8b	-gen,	.	8dd	-gen,	.
8B]	.	.	4r	.	.	4r	.	.	4r	.	.
8r	.	.	.	.	.	.	.	.	.	.	.
2r	.	.	4.d	lin-	>	4.f#	lin-	>	4.b	lin-	>
.	.	.	8c#	-de	.	8f#	-de	.	8a	-de	.
=22	=22	=22	=22	=22	=22	=22	=22	=22	=22	=22	=22
2r	.	.	[1B	Luft,	p	4f#	Luft,	.	4g#	Luft,	.
.	.	.	.	.	.	4r	.	.	4r	.	.
*f#:	*	*	*f#:	*	*	*f#:	*	*	*f#:	*	*
4.D	lin-	p	.	.	.	4.f#	lin-	p	4.g#	lin-	p
8D	-de	.	.	.	.	8f#	-de	.	8g#	-de	.
=23	=23	=23	=23	=23	=23	=23	=23	=23	=23	=23	=23
2C#;	Luft!	.	2B;]	.	.	2e#X;	Luft!	.	2g#;	Luft!	.
4C#	Wenn	<	4B	Wenn	<	4e#	Wenn	<	4cc#	Wenn	<
4C#	ich	.	4B	ich	.	4c#	ich	.	4e#X	ich	.
=24	=24	=24	=24	=24	=24	=24	=24	=24	=24	=24	=24
4.F#	sol-	.	4.A	sol-	.	4.c#	sol-	.	4.f#	sol-	.
8F#	-che	.	8A	-che	.	8c#	-che	.	8f#	-che	.
*A:	*	*	*A:	*	*	*A:	*	*	*A:	*	*
4D	Wor-	.	(8BL	Wor-	.	(8dL	Wor-	.	(8ddL	Wor-	.
.	.	.	8c#J)	.	.	8enXJ)	.	.	8cc#J)	.	.
4D	-te	.	4d	-te	.	4f#	-te	.	(8bL	-te	.
.	.	.	.	.	.	.	.	.	8aJ)	.	.
=25	=25	=25	=25	=25	=25	=25	=25	=25	=25	=25	=25
4E	sin-	.	4c#	sin-	.	4.e	sin-	.	4a	sin-	.
4E	-ge,	.	4B	-ge,	.	.	.	.	4g#	-ge,	.
.	.	.	.	.	.	8e	-ge,	.	.	.	.
4E	braucht	<	4d	braucht	<	4e	braucht	<	4g#	braucht	<
4E	es	.	4d	es	.	4e	es	.	4g#	es	.
=26	=26	=26	=26	=26	=26	=26	=26	=26	=26	=26	=26
4.A	dann	.	4.c#	dann	.	4.e	dann	.	4.a	dann	.
8A	noch	.	8d	noch	.	8f#	noch	.	8a	noch	.
*D:	*	*	*D:	*	*	*D:	*	*	*D:	*	*
4A	gro-	.	4c#	gro-	.	4gn	gro-	.	(8ff#L	gro-	.
.	.	.	.	.	.	.	.	.	8eeJ)	.	.
4A	-sser	.	(8dL	-sser	.	4g	-sser	.	(8ddL	-sser	.
.	.	.	8eJ)	.	.	.	.	.	8cc#J)	.	.
=27	=27	=27	=27	=27	=27	=27	=27	=27	=27	=27	=27
4A	Din-	.	4e	Din-	.	4gn	Din-	.	4cc#	Din-	.
4D	-ge,	.	4d	-ge,	.	4f#	-ge,	.	4dd	-ge,	.
4D	dich	.	4A	dich	.	4f#	dich	.	4ff#	dich	.
*b:	*	*	*b:	*	*	*b:	*	*	*b:	*	*
4D	zu	.	4A#X	zu	.	4f#	zu	.	4ee	zu	.
=28	=28	=28	=28	=28	=28	=28	=28	=28	=28	=28	=28
4D	prei-	.	4B	prei-	.	4f#	prei-	.	4dd	prei-	.
4D	-sen,	.	4e	-sen,	.	4f#	-sen,	.	4cc#	-sen,	.
*A:	*	*	*A:	*	*	*A:	*	*	*A:	*	*
4D	Früh-	.	4d	Früh-	.	4f#	Früh-	.	4b	Früh-	.
4D#X	-lings-	.	4cn	-lings-	.	4f#	-lings-	.	(8bL	-lings-	.
.	.	.	.	.	.	.	.	.	8aJ)	.	.
=29	=29	=29	=29	=29	=29	=29	=29	=29	=29	=29	=29
2E	-tag,	.	2B	-tag,	.	2e	-tag,	.	2g#	-tag,	.
4E	Früh-	.	4d	Früh-	.	4g#	dich	.	4ee	dich	.
4E	-lings-	.	4d	-lings-	.	4g#	zu	.	4ee	zu	.
=30	=30	=30	=30	=30	=30	=30	=30	=30	=30	=30	=30
[1AA	-tag,	.	[1c#X	-tag,	.	4.a	prei-	.	4.ee	prei-	.
.	.	.	.	.	.	8cc#	-sen	.	8aa	-sen	.
.	.	.	.	.	.	(8aL	Früh-	.	(8eeL	Früh-	.
.	.	.	.	.	.	8eJ)	.	.	8cc#J)	.	.
.	.	.	.	.	.	(8c#L	-lings-	.	(8aL	-lings-	.
.	.	.	.	.	.	8eJ)	.	.	8cc#J)	.	.
=31	=31	=31	=31	=31	=31	=31	=31	=31	=31	=31	=31
2AA]	.	.	2c#]	.	.	2a	-tag,	.	2ee	-tag,	.
4F#	dich	f	4c#	dich	f	4a	dich	f	4a	dich	f
4E#X	zu	.	4B	zu	.	4g#	zu	.	4cc#	zu	.
=32	=32	=32	=32	=32	=32	=32	=32	=32	=32	=32	=32
4F#	prei-	.	4A	prei-	.	4f#	prei-	.	4cc#	prei-	.
4D	-sen,	.	4B	-sen,	.	4f#	-sen,	.	(8eeL	-sen,	.
.	.	.	.	.	.	.	.	.	8ddJ)	.	.
4En	Früh-	.	4.e	Früh-	.	4a	Früh-	.	4.cc#	Früh-	.
4E	-lings-	.	.	.	.	4g#	-lings-	.	.	.	.
.	.	.	8d	-lings-	.	.	.	.	8b	-lings-	.
=33	=33	=33	=33	=33	=33	=33	=33	=33	=33	=33	=33
[1A	-tag,	>	2c#	-tag,	.	2a	-tag,	.	2a	-tag,	.
.	.	] p	4a	dich	p	4cc#	dich	p	4cc#	dich	p
.	.	.	4g#	zu	.	4b	zu	.	4ee	zu	.
=34	=34	=34	=34	=34	=34	=34	=34	=34	=34	=34	=34
1A_	.	.	4f#	prei-	.	4a	prei-	.	4a	prei-	.
.	.	.	4e	-sen,	.	4g#	-sen,	.	4cc#	-sen,	.
.	.	.	4d	Früh-	.	4f#	Früh-	.	4f#	Früh-	.
.	.	.	4c#	-lings-	.	4e	-lings-	.	4a	-lings-	.
=35	=35	=35	=35	=35	=35	=35	=35	=35	=35	=35	=35
2A]	.	.	2B	-tag,	.	2d#X	-tag,	.	2d#X	-tag,	.
4.A	dich	.	4.B	dich	.	4.dn	dich	.	4g#	dich	.
.	.	.	.	.	.	.	.	.	(8f#L	zu	.
8A	zu	.	8B	zu	.	8d	zu	.	8eJ)	.	.
=36	=36	=36	=36	=36	=36	=36	=36	=36	=36	=36	=36
4.A	prei-	<	(4d^	prei-	<	4.e	prei-	<	(4b^	prei-	<
.	.	.	8c#)	.	.	.	.	.	8a)	.	.
8A	-sen,	.	8B	-sen,	.	8e	-sen,	.	8g#	-sen,	.
4.A	Früh-	.	(4f#^	Früh-	.	4.g#	Früh-	.	(4dd^	Früh-	.
.	.	.	8e)	.	.	.	.	.	8cc#)	.	.
8A	-lings-	.	8d	-lings-	.	8g#	-lings-	.	8b	-lings-	.
=37	=37	=37	=37	=37	=37	=37	=37	=37	=37	=37	=37
2A	-tag,	.	2c#	-tag,	.	2a	-tag,	.	2ee	-tag,	.
4A	dich	f	4A	dich	f	4cc#	dich	f	4cc#	dich	f
4G#	zu	.	4B	zu	.	4b	zu	.	4ee	zu	.
=38	=38	=38	=38	=38	=38	=38	=38	=38	=38	=38	=38
4F#	prei-	.	4c#	prei-	.	4a	prei-	.	[1aa	prei-	.
4E	-sen,	.	4c#	-sen,	.	4cc#	-sen,	.	.	.	.
4D	Früh-	.	4d	Früh-	.	4f#	Früh-	.	.	.	.
4C#	-lings-	.	4e	-lings-	.	4a	-lings-	.	.	.	.
=39	=39	=39	=39	=39	=39	=39	=39	=39	=39	=39	=39
2.BB	-tag,	.	2.f#	-tag,	.	2.d#X	-tag,	.	2aa]	.	.
.	.	.	.	.	.	.	.	.	4b	-sen,	.
4D#X	zu	.	4B	zu	.	4a	zu	.	4ff#	zu	.
=40	=40	=40	=40	=40	=40	=40	=40	=40	=40	=40	=40
4.E	prei-	.	4.c#	prei-	.	4.a	prei-	.	4.ee	prei-	.
8E	-sen,	.	8e	-sen,	.	8a	-sen,	.	8cc#	-sen,	.
4E	Früh-	.	4e	Früh-	.	4g#	Früh-	.	4cc#	Früh-	.
4E	-lings-	.	4d	-lings-	.	4g#	-lings-	.	4b	-lings-	.
=41	=41	=41	=41	=41	=41	=41	=41	=41	=41	=41	=41
2AA;	-tag?	.	2c#;	-tag?	.	2a;	-tag?	.	2a;	-tag?	.
==	==	==	==	==	==	==	==	==	==	==	==
*-	*-	*-	*-	*-	*-	*-	*-	*-	*-	*-	*-
!!!system-decoration: ([s1,s2,s3,s4])
!!!RDF**kern: i = editorial accidental
!!!AGN: Choral
!!!YOR: https://mdz-nbn-resolving.de/details:bsb00026636
!!!YOO: München, Bayerische Staatsbibliothek
!!!URL-scan: https://www.digitale-sammlungen.de/de/view/bsb00026636?page=2
!!!EED: Wolfgang Drescher
!!!END: 2024/11/14
!!!ENC: Wolfgang Drescher
!!!EEV: 2024/11/14
!!!title: @{OPS} @{ONM}. @{OTL}